!!!!SEGMENT: pl-kk--kk-i-7--055-003_goudimel-claude-missa-audi-filia-sanctus.krn
!!!id: 16xx:885
!!!COM: Goudimel, Claude
!!!OTL: Missa Audi Filia – Sanctus
!!!PDT:
!!!SMS-siglum: PL-Kk
!!!SMS-shelfmark: Kk.I.7
!!!NIFC-rismID: 300258132
!!!URL-scan: http://repozytorium.nifc.pl/skany/pl-kk-nut--i-7
!!!ONB-nifc: UWAGA: C (skan 0052-0054, s.97-100), A (0136-0137, s.93-95), T(0213-0214, s.88-91), B(0300-0301, s.87-89). Części Mszy: 1. Kyrie, 2. Et in terra, 3. Sanctus, 4. Agnus. „Agnus II" rozpisane na 5 głosów. Dodatkowy głoś zapisany w księdze T na stronie 91
!!!SMS-variant:
!!!SMS-altvar:
**kern	**text	**kern	**text	**kern	**text	**kern	**text
*part4	*part4	*part3	*part3	*part2	*part2	*part1	*part1
*staff4	*staff4	*staff3	*staff3	*staff2	*staff2	*staff1	*staff1
*I"BASSVS.	*	*I"TENOR.	*	*I"ALTVS.	*	*I"CANTVS.	*
*I'B	*	*I'T	*	*I'A	*	*I'S	*
*clefF3	*	*clefC3	*	*clefC2	*	*clefG2	*
*k[b-]	*	*k[b-]	*	*k[b-]	*	*k[b-]	*
*M2/1	*	*M2/1	*	*M2/1	*	*M2/1	*
*met(c|)	*	*met(c|)	*	*met(c|)	*	*met(c|)	*
=1	=1	=1	=1	=1	=1	=1	=1
!LO:TX:t=P:problem:bemole:BB-, B- (jeden nad drugim)	!	!	!	!LO:TX:t=P:problem:bemole:B-, b- (jeden nad drugim)	!	!	!
00r	.	0f\	San-	0r	.	00r	.
=2-	=2-	=2-	=2-	=2-	=2-	=2-	=2-
*	*	*lig	*	*	*	*	*
!	!	!	!	!LO:TX:t=P:problem:kreska pseudotaktowa	!	!	!
.	.	1d\	.	1r	.	.	.
!	!	!LO:TX:t=P:problem:♮ above	!	!	!	!	!
.	.	1.en\	.	0g\	San-	.	.
*	*	*Xlig	*	*	*	*	*
=3-	=3-	=3-	=3-	=3-	=3-	=3-	=3-
!	!	!	!	!	!	!LO:TX:t=P:problem:kreska pseudotaktowa	!
00r	.	.	.	.	.	1r	.
*	*	*2\right=	*	*	*	*	*
.	.	2d\	.	.	.	.	.
*	*	*	*	*lig	*	*	*
.	.	2.c/	.	1e\	.	0cc\	San-
.	.	4B-/	.	.	.	.	.
=4-	=4-	=4-	=4-	=4-	=4-	=4-	=4-
.	.	4A/	.	1.f\	.	.	.
.	.	4G/	.	.	.	.	.
.	.	2A/	.	.	.	.	.
*	*	*	*	*	*	*lig	*
.	.	1F/	.	.	.	1a/	.
*	*	*	*	*Xlig	*	*	*
.	.	.	.	2e/	.	.	.
=5-	=5-	=5-	=5-	=5-	=5-	=5-	=5-
0r	.	2.G/	.	2d/	.	1.b-\	.
.	.	.	.	4B-/	.	.	.
!	!	!LO:TX:t=P:problem:kreska pseudotaktowa	!	!	!	!	!
.	.	4A/	.	4c/	.	.	.
.	.	2B-/	.	4d/	.	.	.
.	.	.	.	4e/	.	.	.
*	*	*	*	*	*	*Xlig	*
.	.	2F/	.	1f\	.	2a/	.
=6-	=6-	=6-	=6-	=6-	=6-	=6-	=6-
!LO:TX:t=P:problem:kreska pseudotaktowa	!	!	!	!	!	!	!
1r	.	2.c/	.	.	.	1g/	.
*	*	*	*	*2\right	*	*	*
.	.	.	.	2e\	.	.	.
.	.	4B-/	.	.	.	.	.
!	!	!	!	!LO:TX:t=P:problem:kreska pseudotaktowa	!	!	!
0c\	San-	4A/	.	1f\	-ctus	2.a/	.
.	.	4F/	.	.	.	.	.
.	.	1f\	.	.	.	.	.
.	.	.	.	.	.	8g/L	.
.	.	.	.	.	.	8f/J	.
=7-	=7-	=7-	=7-	=7-	=7-	=7-	=7-
.	.	.	.	1r	.	1g/	.
!	!	!LO:TX:t=P:problem:kreska pseudotaktowa	!	!	!	!	!
.	.	2e\	.	.	.	.	.
*lig	*	*	*	*	*	*	*
!	!	!LO:TX:t=P:problem:cezura na 4. linii	!	!	!	!	!
*	*	*	*	*lig	*	*	*
!	!	!	!	!	!	!LO:TX:t=P:problem:kreska pseudotaktowa	!
1A\	.	2f,<\	-ctus	1a\	San-	1c/	-ctus
.	.	2c\	San-	.	.	.	.
=8-	=8-	=8-	=8-	=8-	=8-	=8-	=8-
1.B-\	.	2.d\	.	1f\	.	0r	.
*2\right	*	*	*	*Xlig	*	*	*
.	.	4c\	.	.	.	.	.
.	.	4d\	.	2g\	.	.	.
.	.	4e\	.	.	.	.	.
*Xlig	*	*	*	*	*	*	*ij
2A\	.	1f\	.	2a\	.	.	.
=9-	=9-	=9-	=9-	=9-	=9-	=9-	=9-
!LO:TX:t=P:problem:kreska pseudotaktowa	!	!	!	!	!	!	!
1G\	.	.	.	1.b-\	.	1r	.
!	!	!LO:TX:t=P:problem:kreska pseudotaktowa	!	!	!	!	!
.	.	2e\	.	.	.	.	.
2.F/	.	2f\	.	.	.	0.cc\	San-
.	.	2.c/	.	2a\	.	.	.
8E/L	.	.	.	.	.	.	.
8D/J	.	.	.	.	.	.	.
=10-	=10-	=10-	=10-	=10-	=10-	=10-	=10-
2E/	.	.	.	2g\	.	.	.
.	.	4B-/	.	.	.	.	.
2F/	.	2A/	.	1f\	.	.	.
1C/	.	1G/	.	.	.	.	.
!	!	!	!	!LO:TX:t=P:problem:kreska pseudotaktowa	!	!	!
.	.	.	.	2e\	.	.	.
=11-	=11-	=11-	=11-	=11-	=11-	=11-	=11-
*lig	*	*	*	*	*	*	*
!	!	!LO:TX:t=P:problem:kreska pseudotaktowa	!	!	!	!	!
*	*	*	*	*	*	*lig	*
1F\	.	0F/	-ctus	2f\	-ctus	1a/	.
*	*	*	*	*	*ij	*	*
.	.	.	.	1f\	San-	.	.
1BB-/	.	.	.	.	.	1.b-\	.
.	.	.	.	4e/	.	.	.
.	.	.	.	4d/	.	.	.
*Xlig	*	*	*	*	*	*Xlig	*
=12-	=12-	=12-	=12-	=12-	=12-	=12-	=12-
!LO:TX:t=P:problem:kreska pseudotaktowa	!	!	!	!	!	!	!
0C/	-ctus	1r	.	2e\	.	.	.
!	!	!	!	!	!	!LO:TX:t=P:problem:kreska pseudotaktowa	!
.	.	.	.	1f\	.	2a/	.
.	.	0c\	San-	.	.	1g/	.
.	.	.	.	2e\	.	.	.
=13-	=13-	=13-	=13-	=13-	=13-	=13-	=13-
0F\	San-	.	.	2.f\	.	1.a/	.
.	.	.	.	8e/L	.	.	.
.	.	.	.	8d/J	.	.	.
*	*	*lig	*	*	*	*	*
!	!	!	!	!LO:TX:t=P:problem:kreska pseudotaktowa	!	!	!
.	.	1A/	.	1c/	-ctus	.	.
*	*	*	*	*	*Xij	*	*
.	.	.	.	.	.	4g/	.
.	.	.	.	.	.	4f/	.
=14-	=14-	=14-	=14-	=14-	=14-	=14-	=14-
!	!	!	!	!	!	!LO:TX:t=P:problem:kreska pseudotaktowa	!
1D/	.	1.B-/	.	1rb	.	1f/	-ctus
!	!	!	!	!LO:TX:t=P:problem:kreska pseudotaktowa	!	!	!
1.E-X/	.	.	.	0g\	San-	0ra	.
*	*	*Xlig	*	*	*	*	*Xij
.	.	2A/	.	.	.	.	.
=15-	=15-	=15-	=15-	=15-	=15-	=15-	=15-
.	.	2.G/	.	.	.	.	.
2D/	.	.	.	.	.	.	.
.	.	8A/L	.	.	.	.	.
.	.	8B-/J	.	.	.	.	.
*	*	*lig	*	*lig	*	*lig	*
1C/	.	1c\	.	1e\	.	1g/	San-
=16-	=16-	=16-	=16-	=16-	=16-	=16-	=16-
4BB-/	.	1d\	.	1.f\	.	1b-\	.
(4C/	.	.	.	.	.	.	.
4D/	.	.	.	.	.	.	.
4Eny/)	.	.	.	.	.	.	.
*	*	*Xlig	*	*Xlig	*	*Xlig	*
!	!	!LO:TX:t=P:problem:kreska pseudotaktowa	!	!	!	!	!
!	!	!LO:SIC:v:custos:g	!	!	!	!	!
2F/	.	1c\	-ctus.	.	.	4a/	.
.	.	.	.	.	.	4g/	.
!	!	!	!	!LO:TX:t=P:problem:kreska pseudotaktowa	!	!	!
2C/	.	.	.	2e/	.	1cc\	.
=17-	=17-	=17-	=17-	=17-	=17-	=17-	=17-
!	!	!LO:LB:g=original	!	!	!	!	!
1G\	.	2r	.	1d/	.	.	.
*	*	*	*	*	*	*2\right	*
.	.	1g\	Do-	.	.	2b-\	.
!LO:TX:t=P:problem:kreska pseudotaktowa	!	!	!	!	!	!LO:TX:t=P:problem:kreska pseudotaktowa	!
0C/	-ctus	.	.	2.c/	.	1cc\	-ctus
.	.	2g\	-mi-	.	.	.	.
!	!	!	!	!LO:TX:t=P:problem:kreska pseudotaktowa	!	!	!
.	.	.	.	4B-/	.	.	.
=18-	=18-	=18-	=18-	=18-	=18-	=18-	=18-
!	!	!	!	!LO:LB:g=original	!	!	!
.	.	2e\	-n(us)	4c/	.	2r	.
.	.	.	.	4B-/	.	.	.
.	.	2c\	.	4A/	.	1cc\	Do-
.	.	.	.	4G/	.	.	.
!	!	!	!	!LO:TX:t=P:problem:kreska pseudotaktowa	!	!	!
00r	.	1.f\	De-	1F/	-ctus	.	.
.	.	.	.	.	.	2cc\	-mi-
=19-	=19-	=19-	=19-	=19-	=19-	=19-	=19-
.	.	.	.	0r	.	2a/	-n(us)
!	!	!	!	!	!	!LO:TX:t=P:problem:kreska pseudotaktowa	!
.	.	2d\	-us	.	.	2f/	.
.	.	2e\	.	.	.	1cc\	De-
.	.	2.f\	Sab-	.	.	.	.
=20-	=20-	=20-	=20-	=20-	=20-	=20-	=20-
!	!	!	!	!LO:TX:t=P:problem:kreska pseudotaktowa	!	!	!
.	.	.	.	1r	.	2dd\	-us
.	.	4e\	.	.	.	.	.
!	!	!LO:TX:t=P:problem:kreska pseudotaktowa	!	!	!	!	!
.	.	2c\	.	.	.	2ee\	Sab-
00r	.	2.d\	.	2r	.	2.ff\	.
.	.	.	.	1f\	Do-	.	.
.	.	8c/L	.	.	.	8ee\L	.
!	!	!	!	!	!	!LO:TX:t=P:problem:kreska pseudotaktowa	!
.	.	8B-/J	.	.	.	8dd\J	.
=21-	=21-	=21-	=21-	=21-	=21-	=21-	=21-
!	!	!	!	!	!	!LO:LB:g=original	!
.	.	2A/	.	.	.	2cc\	.
.	.	2.B-/	.	2f\	-mi-	2.dd\	.
.	.	.	.	2d/	-n(us)	.	.
.	.	4A/	.	.	.	8cc/L	.
.	.	.	.	.	.	8b-/J	.
!	!	!LO:TX:t=P:problem:kreska pseudotaktowa:między nutą a kropką, ligatura	!	!	!	!	!
.	.	2.F/	.	2c/	DE-	2.a/	.
=22-	=22-	=22-	=22-	=22-	=22-	=22-	=22-
.	.	.	.	1f\	.	.	.
.	.	4G/	.	.	.	4b-/	.
.	.	4A/	.	.	.	4cc/	.
.	.	4B-/	.	.	.	4dd/	.
!LO:TX:t=P:problem:kreska pseudotaktowa	!	!	!	!	!	!	!
1r	.	2c/	.	2e\	-(us)	2ee\	.
.	.	2A/	.	2a\	Sab-	1ff\	.
=23-	=23-	=23-	=23-	=23-	=23-	=23-	=23-
2r	.	2B-/	.	1g\	.	.	.
1c\	Do-	2c/	-ba-	.	.	2ee\	-ba-
!	!	!LO:TX:t=P:problem:kreska pseudotaktowa	!	!	!	!	!
.	.	0F/	-oth.	2.a\	.	2ff,<\	-oth.
2c\	-mi-	.	.	.	.	1cc\	Do-
.	.	.	.	4g\	.	.	.
=24-	=24-	=24-	=24-	=24-	=24-	=24-	=24-
2A\	-n(us)	.	.	4f\	.	.	.
.	.	.	.	4e\	.	.	.
!LO:TX:t=P:problem:kreska pseudotaktowa	!	!	!	!	!	!	!
2F\	De-	.	.	1f\	.	2cc\	-mi-
2.c\	.	1r	.	.	.	2a/	-n(us)
!	!	!	!	!	!	!LO:TX:t=P:problem:kreska pseudotaktowa	!
.	.	.	.	2e\	-ba-	2g/	.
!LO:TX:t=P:problem:kreska pseudotaktowa	!	!	!	!	!	!	!
!LO:SIC:v:custos:A	!	!	!	!	!	!	!
4B-\	.	.	.	.	.	.	.
=25-	=25-	=25-	=25-	=25-	=25-	=25-	=25-
!LO:LB:g=original	!	!	!	!LO:TX:t=P:problem:kreska pseudotaktowa	!	!	!
4A\	.	2r	.	1f\	-oth.	2.cc\	De-
4G\	.	.	.	.	.	.	.
1F\	.	1c\	Do-	.	.	.	.
.	.	.	.	.	.	4b-/	-us
.	.	.	.	1r	.	2a/	.
!LO:TX:t=P:problem:kreska pseudotaktowa	!	!	!	!	!	!	!
2E/	-us	2c/	-mi-	.	.	2g/	Sab-
=26-	=26-	=26-	=26-	=26-	=26-	=26-	=26-
2F/	Sab-	2A/	-n(us)	2r	.	2.f/	.
2D/	.	2F/	.	1f\	Do-	.	.
.	.	.	.	.	.	4g/	.
!	!	!LO:TX:t=P:problem:kreska pseudotaktowa	!	!	!	!	!
2.C/	.	1c\	De-	.	.	4a/	.
.	.	.	.	.	.	8g/L	.
.	.	.	.	.	.	8f/J	.
.	.	.	.	2e/	-mi-	4g/	.
4C/	-ba-	.	.	.	.	4a/	.
=27-	=27-	=27-	=27-	=27-	=27-	=27-	=27-
!LO:TX:t=P:problem:cezura na 1. linii	!	!	!	!	!	!	!
2BB-,</	-oth	2.f\	-us	2d/	.	2b-/	.
1F\	Do-	.	.	2c/	-n(us)	2a/	-ba-
.	.	4e\	.	.	.	.	.
!	!	!	!	!	!	!LO:TX:t=P:problem:kreska pseudotaktowa	!
.	.	2d\	.	1.f\	De-	1a/	-oth.
2F/	-mi-	2c/	Sab-	.	.	.	.
=28-	=28-	=28-	=28-	=28-	=28-	=28-	=28-
2D/	-n(us)	2d\	.	.	.	2r	.
2C/	.	2e\	.	2g\	-us	1cc\	Do-
1.F\	De-	2.f\	.	2.a\	Sab-	.	.
.	.	.	.	.	.	2cc\	-mi-
.	.	8e\L	-ba-	4g\	.	.	.
.	.	8d\J	.	.	.	.	.
=29-	=29-	=29-	=29-	=29-	=29-	=29-	=29-
.	.	2c\	-oth.	2f\	.	2a/	-n(us)
!LO:TX:t=P:problem:kreska pseudotaktowa	!	!LO:TX:t=P:problem:kreska pseudotaktowa	!	!	!	!	!
2G\	-us	2r	.	2.b-\	.	2g/	DE-
!	!	!	!	!	!	!LO:TX:t=P:problem:cezura na 2. linii	!
2A\	Sab-	2r	.	.	.	1cc\,<	-(us)
.	.	.	.	4a\	.	.	.
2F\	.	1f\	D(o-	1a\	.	.	.
=30-	=30-	=30-	=30-	=30-	=30-	=30-	=30-
!	!	!	!	!	!	!LO:TX:t=P:problem:kreska pseudotaktowa	!
1B-\	.	.	.	.	.	1dd\	Sab-
!	!	!	!	!LO:TX:t=P:problem:kreska pseudotaktowa	!	!	!
.	.	2d\	-mi)-	2g\	.	.	.
2A\	.	2e\	-n(us)	2.a\	.	2.cc\	.
2.F/	.	2f\	DE-	.	.	.	.
.	.	.	.	4g\	.	4b-/	.
=31-	=31-	=31-	=31-	=31-	=31-	=31-	=31-
.	.	1c\	-(us)	2f\	.	2a/	.
4E/	.	.	.	.	.	.	.
2C/	.	.	.	2e/	.	2g/	.
1D/	.	2A/	.	2.d/	.	4f/	.
.	.	.	.	.	.	4g/	.
.	.	2F/	Sab-	.	.	4a/	.
.	.	.	.	4c/	.	4f/	.
=32-	=32-	=32-	=32-	=32-	=32-	=32-	=32-
*lig	*	*	*	*	*	*	*
1BB-/	-ba-	2.B-/	.	1d/	.	2g/	.
.	.	.	.	.	.	1f/	.
.	.	4A/	.	.	.	.	.
1C/	.	1G/	-ba-	2.c/	.	.	.
.	.	.	.	.	.	2e/	-ba-
.	.	.	.	4c/	-ba-	.	.
*Xlig	*	*	*	*	*	*	*
=33-	=33-	=33-	=33-	=33-	=33-	=33-	=33-
0F\;	-oth.	0A/;	-oth.	0c/;	-oth.	0f/;	-oth.
!	!	!	!	!LO:LB:g=original	!	!	!
=34||	=34||	=34||	=34||	=34||	=34||	=34||	=34||
*M2/1	*	*M2/1	*	*	*	*	*
*met(c|)	*	*met(c|)	*	*	*	*	*
!LO:TX:t=a2	!	!LO:TX:t=P:problem:kreska pseudotaktowa	!	!LO:TX:i:t=Pleni\nTacet	!	!LO:TX:i:t=Pleni sunt\nTacet.	!
!	!	!LO:LB:g=original	!	!	!	!	!
1.F\	Ple-	0r	.	0ryy	.	0ryy	.
2G\	-ni	.	.	.	.	.	.
=35-	=35-	=35-	=35-	=35-	=35-	=35-	=35-
2F\	sunt	1.c\	Ple-	0ryy	.	0ryy	.
2E/	.	.	.	.	.	.	.
2.F\	cae-	.	.	.	.	.	.
.	.	2d\	-ni	.	.	.	.
!LO:TX:t=P:problem:kreska pseudotaktowa	!	!	!	!	!	!	!
4G\	.	.	.	.	.	.	.
=36-	=36-	=36-	=36-	=36-	=36-	=36-	=36-
2A\	.	2c\	sunt	0ryy	.	0ryy	.
1B-\	.	2B-\	cae-	.	.	.	.
.	.	2.c\	.	.	.	.	.
2A\	.	.	.	.	.	.	.
.	.	4d\	.	.	.	.	.
=37-	=37-	=37-	=37-	=37-	=37-	=37-	=37-
2G\	.	2e\	.	0ryy	.	0ryy	.
2F\	.	1f\	.	.	.	.	.
1G\	.	.	.	.	.	.	.
!	!	!LO:TX:t=P:problem:kreska pseudotaktowa	!	!	!	!	!
.	.	2e\	.	.	.	.	.
=38-	=38-	=38-	=38-	=38-	=38-	=38-	=38-
2.F/	.	2d\	.	0ryy	.	0ryy	.
.	.	2.c/	.	.	.	.	.
8E/L	.	.	.	.	.	.	.
!LO:TX:t=P:problem:kreska pseudotaktowa	!	!	!	!	!	!	!
!LO:SIC:v:custos:C	!	!	!	!	!	!	!
8D/J	.	.	.	.	.	.	.
!LO:LB:g=original	!	!	!	!	!	!	!
2C/	.	.	.	.	.	.	.
.	.	4B-/	.	.	.	.	.
1F\	.	4A/	.	.	.	.	.
.	.	4G/	.	.	.	.	.
=39-	=39-	=39-	=39-	=39-	=39-	=39-	=39-
.	.	2A/	.	0ryy	.	0ryy	.
2G\	.	2B-/	.	.	.	.	.
!	!	!LO:TX:t=P:problem:kreska pseudotaktowa	!	!	!	!	!
2F\	.	1c\	-li	.	.	.	.
2E/	.	.	.	.	.	.	.
=40-	=40-	=40-	=40-	=40-	=40-	=40-	=40-
!LO:TX:t=P:problem:kreska pseudotaktowa	!	!	!	!	!	!	!
1F\	-li	2r	.	0ryy	.	0ryy	.
.	.	1f\	Ple-	.	.	.	.
2r	.	.	.	.	.	.	.
1B-\	Ple-	2g\	-ni	.	.	.	.
=41-	=41-	=41-	=41-	=41-	=41-	=41-	=41-
.	.	2f\	sunt	0ryy	.	0ryy	.
2c\	-ni	2e\	.	.	.	.	.
2B-\	sunt	1.f\	cae-	.	.	.	.
2A\	.	.	.	.	.	.	.
=42-	=42-	=42-	=42-	=42-	=42-	=42-	=42-
!LO:TX:t=P:problem:kreska pseudotaktowa	!	!	!	!	!	!	!
1B-\	cae-	.	.	0ryy	.	0ryy	.
!	!	!LO:TX:t=P:problem:kreska pseudotaktowa	!	!	!	!	!
.	.	2d\	-li	.	.	.	.
2G\	.	2.g\	et	.	.	.	.
2.c\	.	.	.	.	.	.	.
.	.	4f\	.	.	.	.	.
=43-	=43-	=43-	=43-	=43-	=43-	=43-	=43-
.	.	4e\	ter-	0ryy	.	0ryy	.
4B-\	.	4d\	.	.	.	.	.
4A\	.	4c/	.	.	.	.	.
!LO:TX:t=P:problem:kreska pseudotaktowa	!	!	!	!	!	!	!
4G\	.	4B-/	.	.	.	.	.
4F\	.	4A/	.	.	.	.	.
4G\	.	4B-/	.	.	.	.	.
4A\	.	4c/	.	.	.	.	.
4G\	.	8B-/L	.	.	.	.	.
.	.	8c/J	.	.	.	.	.
=44-	=44-	=44-	=44-	=44-	=44-	=44-	=44-
4F/	.	2d\	.	0ryy	.	0ryy	.
4E/	.	.	.	.	.	.	.
4E/	.	1c\	.	.	.	.	.
8D/L	.	.	.	.	.	.	.
8C/J	.	.	.	.	.	.	.
1D/	.	.	.	.	.	.	.
.	.	2B-/	.	.	.	.	.
=45-	=45-	=45-	=45-	=45-	=45-	=45-	=45-
!	!	!LO:TX:t=P:problem:kreska pseudotaktowa	!	!	!	!	!
2C/	-li	0c\	-ra	0ryy	.	0ryy	.
1F\	et	.	.	.	.	.	.
2E/	ter-	.	.	.	.	.	.
=46-	=46-	=46-	=46-	=46-	=46-	=46-	=46-
2F\	.	2r	.	0ryy	.	0ryy	.
2A\	.	1c\	glo-	.	.	.	.
!LO:TX:t=P:problem:kreska pseudotaktowa	!	!	!	!	!	!	!
1G\	-ra	.	.	.	.	.	.
.	.	2B-/	-ri-	.	.	.	.
=47-	=47-	=47-	=47-	=47-	=47-	=47-	=47-
2r	.	2c\	-a	0ryy	.	0ryy	.
1F\	glo-	2d\	tu-	.	.	.	.
!	!	!LO:TX:t=P:problem:kreska pseudotaktowa	!	!	!	!	!
.	.	1c\	-ȃ.	.	.	.	.
2E/	-ri-	.	.	.	.	.	.
=48-	=48-	=48-	=48-	=48-	=48-	=48-	=48-
2F\	-a	2r	.	0ryy	.	0ryy	.
2A\	tu-	1f\	O-	.	.	.	.
!LO:TX:t=P:problem:kreska pseudotaktowa	!	!	!	!	!	!	!
1G\	-a	.	.	.	.	.	.
!	!	!LO:TX:t=P:problem:kreska pseudotaktowa	!	!	!	!	!
.	.	2e\	-san-	.	.	.	.
=49-	=49-	=49-	=49-	=49-	=49-	=49-	=49-
!	!	!LO:LB:g=original	!	!	!	!	!
2r	.	2f\	-na	0ryy	.	0ryy	.
1c\	O-	2g\	in	.	.	.	.
.	.	4e\	ex-	.	.	.	.
.	.	4f\	.	.	.	.	.
2B-\	.	4g\	.	.	.	.	.
.	.	8f\L	.	.	.	.	.
.	.	8e\J	.	.	.	.	.
=50-	=50-	=50-	=50-	=50-	=50-	=50-	=50-
!LO:TX:t=P:problem:kreska pseudotaktowa	!	!	!	!	!	!	!
1A\	-san-	2f\	-cel-	0ryy	.	0ryy	.
.	.	2.e\	.	.	.	.	.
2G\	-na	.	.	.	.	.	.
.	.	8d\L	.	.	.	.	.
.	.	8c\J	.	.	.	.	.
2.B-\	in	4d\	.	.	.	.	.
!	!	!LO:TX:t=P:problem:kreska pseudotaktowa	!	!	!	!	!
.	.	4e\	.	.	.	.	.
=51-	=51-	=51-	=51-	=51-	=51-	=51-	=51-
.	.	2.f\	.	0ryy	.	0ryy	.
8A\L	ex-	.	.	.	.	.	.
8G\J	.	.	.	.	.	.	.
4F/	-cel-	.	.	.	.	.	.
!LO:TX:t=P:problem:kreska pseudotaktowa	!	!	!	!	!	!	!
4G/	.	8e\L	.	.	.	.	.
.	.	8d\J	.	.	.	.	.
4A\	.	4c\	.	.	.	.	.
4B-\	.	4d\	.	.	.	.	.
!LO:TX:t=P:problem:kreska pseudotaktowa	!	!	!	!	!	!	!
!LO:SIC:v:custos:C	!	!	!	!	!	!	!
2c\	.	4e\	.	.	.	.	.
!	!	!LO:TX:t=P:problem:kreska pseudotaktowa	!	!	!	!	!
.	.	4f\	.	.	.	.	.
=52-	=52-	=52-	=52-	=52-	=52-	=52-	=52-
!LO:LB:g=original	!	!	!	!	!	!	!
4C/	.	2g,<\	-sis	0ryy	.	0ryy	.
4D/	.	.	.	.	.	.	.
4E/	.	4G/	in	.	.	.	.
!LO:TX:t=P:problem:kreska pseudotaktowa	!	!	!	!	!	!	!
4F/	.	4A/	.	.	.	.	.
4G\	.	4B-/	ex-	.	.	.	.
4A\	.	4c/	.	.	.	.	.
1B-\	.	4d/	.	.	.	.	.
!	!	!LO:TX:t=P:problem:kreska pseudotaktowa	!	!	!	!	!
.	.	4e/	.	.	.	.	.
=53-	=53-	=53-	=53-	=53-	=53-	=53-	=53-
.	.	1f\	.	0ryy	.	0ryy	.
!LO:TX:t=P:problem:kreska pseudotaktowa	!	!	!	!	!	!	!
2A\	.	.	.	.	.	.	.
2.G\	.	2e\	.	.	.	.	.
.	.	2.d\	cel-	.	.	.	.
8F/L	.	.	.	.	.	.	.
8E/J	.	.	.	.	.	.	.
=54-	=54-	=54-	=54-	=54-	=54-	=54-	=54-
4D/	.	.	.	0ryy	.	0ryy	.
4E/	.	8c/L	.	.	.	.	.
.	.	8B-/J	.	.	.	.	.
4F/	.	4A/	.	.	.	.	.
!LO:TX:t=P:problem:kreska pseudotaktowa	!	!	!	!	!	!	!
4G/	.	4B-/	.	.	.	.	.
4A\	.	4c\	.	.	.	.	.
4B-\	.	4d\	.	.	.	.	.
4c\	.	4e\	.	.	.	.	.
!	!	!LO:TX:t=P:problem:kreska pseudotaktowa	!	!	!	!	!
8B-\L	.	4f\	.	.	.	.	.
!LO:TX:t=P:problem:kreska pseudotaktowa	!	!	!	!	!	!	!
8A\J	.	.	.	.	.	.	.
=55-	=55-	=55-	=55-	=55-	=55-	=55-	=55-
4B-\	.	4g\	.	0ryy	.	0ryy	.
4A\	.	4f\	.	.	.	.	.
4A\	.	1f\	.	.	.	.	.
8G\L	.	.	.	.	.	.	.
8F\J	.	.	.	.	.	.	.
1G\	.	.	.	.	.	.	.
.	.	2e\	.	.	.	.	.
=56-	=56-	=56-	=56-	=56-	=56-	=56-	=56-
!	!	!LO:TX:i:b:t=Benedict(us) Vertat(ur)	!	!	!	!	!
0F\;	-sis.	0f\;	-sis.	0ryy	.	0ryy	.
=57||	=57||	=57||	=57||	=57||	=57||	=57||	=57||
*	*	*M2/1	*	*M2/1	*	*M2/1	*
*	*	*met(c|)	*	*met(c|)	*	*met(c|)	*
!LO:TX:i:t=Benedictus et Osanna Tacet	!	!LO:PB:g=original	!	!LO:LB:g=original	!	!LO:LB:g=original	!
0ryy	.	00r	.	0r	.	1.cc\	Be-
.	.	.	.	.	.	2cc\	-ne-
=58-	=58-	=58-	=58-	=58-	=58-	=58-	=58-
0ryy	.	.	.	2r	.	1dd\	-di-
.	.	.	.	1f\	Be-	.	.
.	.	.	.	.	.	2cc\	.
.	.	.	.	2f\	-ne-	2a/	-ctus
=59-	=59-	=59-	=59-	=59-	=59-	=59-	=59-
0ryy	.	0rc	.	1g\	-di-	4b-/	qui
.	.	.	.	.	.	4a/	.
.	.	.	.	.	.	4b-/	.
.	.	.	.	.	.	4cc/	.
.	.	.	.	2f\	-ct(us)	4dd\	ve-
.	.	.	.	.	.	4ee\	.
.	.	.	.	2d/	.	1ff\	.
=60-	=60-	=60-	=60-	=60-	=60-	=60-	=60-
!	!	!LO:TX:t=P:problem:kreska pseudotaktowa	!	!LO:TX:t=P:problem:kreska pseudotaktowa	!	!	!
0ryy	.	1rc	.	1f\	qui	.	.
.	.	.	.	.	.	4ee\	.
!	!	!	!	!	!	!LO:TX:t=P:problem:kreska pseudotaktowa	!
.	.	.	.	.	.	4dd\	.
.	.	1.c\	Be-	2g\	ve-	2ee\	.
.	.	.	.	2a\	.	4cc\	.
.	.	.	.	.	.	4dd\	.
=61-	=61-	=61-	=61-	=61-	=61-	=61-	=61-
0ryy	.	.	.	2g\	.	4ee\	.
.	.	.	.	.	.	4ff\	.
.	.	2c\	-ne-	2e\	.	1gg\	.
*	*	*	*	*lig	*	*	*
.	.	1d\	-di-	1f\	.	.	.
.	.	.	.	.	.	1ff\	.
=62-	=62-	=62-	=62-	=62-	=62-	=62-	=62-
0ryy	.	1c\	.	1g\	.	.	.
.	.	.	.	.	.	2ee\	.
!	!	!	!	!	!	!LO:TX:t=P:problem:kreska pseudotaktowa	!
*	*	*	*	*Xlig	*	*	*
!	!	!	!	!LO:TX:t=P:problem:kreska pseudotaktowa	!	!	!
.	.	2A/	-ctus	1f\	-nit	2ff\	.
.	.	2B-/	.	.	.	1dd\	.
=63-	=63-	=63-	=63-	=63-	=63-	=63-	=63-
0ryy	.	1c\	qui	1rb	.	.	.
.	.	.	.	.	.	1cc\	.
.	.	2.d\	Ve-	2r	.	.	.
.	.	.	.	1f\	Be-	2b-\	.
.	.	8c/L	.	.	.	.	.
.	.	8B-/J	.	.	.	.	.
=64-	=64-	=64-	=64-	=64-	=64-	=64-	=64-
0ryy	.	2A/	.	.	.	2cc\	.
.	.	2B-/	.	2f\	-ne-	2dd\	.
.	.	4G/	.	1g\	-di-	1b-\	.
.	.	4A/	.	.	.	.	.
.	.	4B-/	.	.	.	.	.
!	!	!LO:TX:t=P:problem:kreska pseudotaktowa	!	!	!	!	!
.	.	4c/	.	.	.	.	.
=65-	=65-	=65-	=65-	=65-	=65-	=65-	=65-
0ryy	.	4d\	.	2f\	.	2.a/	.
.	.	4e\	.	.	.	.	.
.	.	1f\	.	2d/	-ct(us)	.	.
.	.	.	.	.	.	8g/L	.
.	.	.	.	.	.	8f/J	.
.	.	.	.	2.c/	qui	1g/	.
.	.	2e\	.	.	.	.	.
.	.	.	.	4B-/	.	.	.
=66-	=66-	=66-	=66-	=66-	=66-	=66-	=66-
!	!	!LO:TX:t=P:problem:kreska pseudotaktowa	!	!	!	!	!
0ryy	.	1f\	-nit	2A/	ve-	4f/	.
.	.	.	.	.	.	4g/	.
.	.	.	.	4F/	.	4a/	.
.	.	.	.	4G/	.	4b-/	.
.	.	2r	.	4A/	.	2cc/	.
.	.	.	.	4B-/	.	.	.
.	.	1c\	Be-	4c/	.	2a/	.
.	.	.	.	4d/	.	.	.
=67-	=67-	=67-	=67-	=67-	=67-	=67-	=67-
!	!	!	!	!	!	!LO:TX:t=P:problem:kreska pseudotaktowa	!
0ryy	.	.	.	4e\	.	1g/	-nit
.	.	.	.	4f\	.	.	.
.	.	2c\	-ne-	1g\	.	.	.
.	.	1d\	-di-	.	.	1r	.
!	!	!	!	!LO:TX:t=P:problem:kreska pseudotaktowa	!	!	!
.	.	.	.	2f\	.	.	.
=68-	=68-	=68-	=68-	=68-	=68-	=68-	=68-
0ryy	.	2c\	-ctus	2g\	.	0cc\	Be-
.	.	1f\	qui	1a\	.	.	.
.	.	4e\	.	4g\	.	.	.
.	.	4d\	.	4f\	.	.	.
=69-	=69-	=69-	=69-	=69-	=69-	=69-	=69-
0ryy	.	2e\	.	2g\	.	1cc\	-ne-
.	.	2f\	.	2a\	.	.	.
*	*	*	*	*lig	*	*	*
.	.	4B-/	Ve-	1b-\	.	1dd\	-di-
.	.	4c/	.	.	.	.	.
.	.	4d/	.	.	.	.	.
.	.	4e/	.	.	.	.	.
=70-	=70-	=70-	=70-	=70-	=70-	=70-	=70-
0ryy	.	2f\	.	1.a\	.	2cc\	-ctus
.	.	4F/	.	.	.	1ff\	.
.	.	4G/	.	.	.	.	.
.	.	4A/	.	.	.	.	.
.	.	4B-/	.	.	.	.	.
*	*	*	*	*Xlig	*	*	*
.	.	2c\	.	2g\	.	2ee\	.
=71-	=71-	=71-	=71-	=71-	=71-	=71-	=71-
0ryy	.	2F/	.	2f\	.	4dd\	qui
.	.	.	.	.	.	4cc\	.
.	.	2A/	.	4e/	.	1cc\	ve-
.	.	.	.	8d/L	.	.	.
.	.	.	.	8c/J	.	.	.
!	!	!LO:TX:t=P:problem:kreska pseudotaktowa	!	!	!	!	!
.	.	1G/	-nit	1d/	.	.	.
.	.	.	.	.	.	2b-\	.
=72-	=72-	=72-	=72-	=72-	=72-	=72-	=72-
0ryy	.	1rc	.	4c/	.	2a/	.
.	.	.	.	4d/	.	.	.
.	.	.	.	4e/	.	4g/	.
.	.	.	.	4f/	.	4a/	.
.	.	2rA	.	4g\	.	4b-\	.
.	.	.	.	4a\	.	4cc\	.
.	.	1B-/	in	2.b-\	.	2.dd\	.
=73-	=73-	=73-	=73-	=73-	=73-	=73-	=73-
0ryy	.	.	.	.	.	.	.
.	.	.	.	4a\	.	4ee\	.
.	.	2d\	N(o-	4f\	-nit	1ff\	.
.	.	.	.	4g\	.	.	.
.	.	2c\	-mi)-	2a\	.	.	.
!	!	!LO:TX:t=P:problem:kreska pseudotaktowa	!	!LO:TX:t=P:problem:kreska pseudotaktowa	!	!LO:TX:t=P:problem:kreska pseudotaktowa	!
.	.	2c\	-ne	2g\	.	2ee\	.
=74-	=74-	=74-	=74-	=74-	=74-	=74-	=74-
!	!	!	!	!	!	!LO:TX:t=P:problem:kreska pseudotaktowa	!
!	!	!LO:LB:g=original	!	!LO:LB:g=original	!	!LO:TX:t=P:problem:cezura na 3. linii	!
0ryy	.	2.B-/	Do-	2r	.	1dd\,<	-nit
.	.	.	.	1f\	in	.	.
.	.	8A/L	.	.	.	.	.
.	.	8G/J	.	.	.	.	.
!	!	!	!	!	!	!LO:LB:g=original	!
.	.	2F/	.	.	.	2r	.
.	.	2F/	-mi-	2a\	No-	1cc\	in
=75-	=75-	=75-	=75-	=75-	=75-	=75-	=75-
!	!	!LO:TX:t=P:problem:kreska pseudotaktowa	!	!	!	!	!
0ryy	.	1c\	-ni	2g\	-mi-	.	.
!	!	!	!	!LO:TX:t=P:problem:kreska pseudotaktowa	!	!	!
.	.	.	.	2g\	-ne	2ee\	No-
.	.	1r	.	2f\	Do-	2dd\	-mi-
.	.	.	.	4e/	.	2dd\	-ne
.	.	.	.	4d/	.	.	.
=76-	=76-	=76-	=76-	=76-	=76-	=76-	=76-
0ryy	.	2rF	.	2e\	.	2.cc\	Do-
.	.	1F/	in	2.f\	.	.	.
.	.	.	.	.	.	4b-/	.
.	.	.	.	.	.	4a/	.
.	.	.	.	4e/	.	4g/	.
.	.	2A/	No-	4c/	.	2.cc\	.
.	.	.	.	4d/	.	.	.
=77-	=77-	=77-	=77-	=77-	=77-	=77-	=77-
0ryy	.	2G/	-mi-	4e\	.	.	.
.	.	.	.	4f\	.	8b-/L	.
.	.	.	.	.	.	8a/J	.
.	.	2G/	-ne	1g\	.	2b-\	.
.	.	2.A/	Do-	.	.	2cc\	.
.	.	.	.	1f\	.	2a/	-mi-
.	.	4B-/	.	.	.	.	.
=78-	=78-	=78-	=78-	=78-	=78-	=78-	=78-
!	!	!	!	!	!	!LO:TX:t=P:problem:kreska pseudotaktowa	!
0ryy	.	2c\	.	.	.	1g/	-ni
!	!	!LO:TX:t=P:problem:kreska pseudotaktowa	!	!	!	!	!
.	.	2c\	-mi-	2e\	-mi-	.	.
!	!	!LO:TX:t=P:problem:cezura na 1. linii	!	!LO:TX:t=P:problem:kreska pseudotaktowa	!	!	!
.	.	2F,</	-ni	1f\	-ni	2r	.
.	.	1B-/	in	.	.	1dd\	in
=79-	=79-	=79-	=79-	=79-	=79-	=79-	=79-
0ryy	.	.	.	1f\	Do-	.	.
.	.	2d\	No-	.	.	2ff\	No-
.	.	2c\	.	2a\	.	2ee\	-mi-
.	.	2c\	-mi-	2g\	.	2ee\	-ne
=80-	=80-	=80-	=80-	=80-	=80-	=80-	=80-
0ryy	.	2.B-/	-ne	2g\	.	4dd\	Do-
.	.	.	.	.	.	4cc\	.
.	.	.	.	2.f\	.	4dd\	.
.	.	4c/	Do-	.	.	4ee\	.
.	.	4d\	.	.	.	2.ff\	.
.	.	4e\	.	4e/	.	.	.
.	.	1f\	.	4d/	.	.	.
.	.	.	.	4c/	.	4ee\	.
=81-	=81-	=81-	=81-	=81-	=81-	=81-	=81-
0ryy	.	.	.	2B-/	.	2dd\	.
!	!	!LO:TX:t=P:problem:kreska pseudotaktowa	!	!	!	!	!
.	.	2e\	-mi-	2c/	-mi-	4cc/	.
.	.	.	.	.	.	4b-/	.
!	!	!LO:TX:t=P:problem:cezura na 4. linii	!	!LO:TX:t=P:problem:kreska pseudotaktowa	!	!	!
.	.	2f,<\	-ni	1d/	-ni	4a/	.
.	.	.	.	.	.	4g/	.
.	.	1F/	in	.	.	4f/	.
!	!	!	!	!	!	!LO:TX:t=P:problem:kreska pseudotaktowa	!
.	.	.	.	.	.	4g/	.
=82-	=82-	=82-	=82-	=82-	=82-	=82-	=82-
0ryy	.	.	.	2rd	.	4a/	.
.	.	.	.	.	.	4b-/	.
.	.	2A/	N(o-	2c/	in	1cc\	.
.	.	2G/	-mi)-	2e/	N(o-	.	.
!	!	!LO:TX:t=P:problem:kreska pseudotaktowa	!	!	!	!	!
.	.	2G/	-ne	2d/	-mi)-	2b-/	-mi-
=83-	=83-	=83-	=83-	=83-	=83-	=83-	=83-
!	!	!	!	!	!	!LO:TX:t=P:problem:kreska pseudotaktowa	!
0ryy	.	2.F/	Do-	2d/	-ne	1a/	-ni.
.	.	.	.	2.c/	Do-	.	.
.	.	4G/	.	.	.	.	.
.	.	4A/	.	.	.	0r	.
.	.	4B-/	.	4d/	.	.	.
.	.	2.c/	.	4e/	.	.	.
.	.	.	.	4f/	.	.	.
=84-	=84-	=84-	=84-	=84-	=84-	=84-	=84-
0ryy	.	.	.	2.g\	.	.	.
.	.	8B-/L	.	.	.	.	.
.	.	8A/J	.	.	.	.	.
.	.	4G/	.	.	.	.	.
!	!	!LO:TX:t=P:problem:kreska pseudotaktowa	!	!	!	!	!
.	.	4A/	.	8f\L	.	.	.
.	.	.	.	8e\J	.	.	.
.	.	4B-/	.	4d/	.	2rg	.
.	.	4c/	.	4e/	.	.	.
.	.	2.d\	.	4f/	.	2f/	O-
.	.	.	.	4g/	.	.	.
=85-	=85-	=85-	=85-	=85-	=85-	=85-	=85-
0ryy	.	.	.	2a\	.	2f/	-san-
.	.	4c/	.	.	.	.	.
!	!	!	!	!	!	!LO:TX:t=P:problem:kreska pseudotaktowa	!
.	.	4A/	.	1f\	.	2a/	-na
.	.	4B-/	.	.	.	.	.
.	.	2.c\	.	.	.	2g/	.
.	.	.	.	4e/	.	2g/	in
!	!	!LO:TX:t=P:problem:kreska pseudotaktowa	!	!	!	!	!
!	!	!LO:SIC:v:custos:A	!	!	!	!	!
.	.	4B-/	.	4d/	.	.	.
=86-	=86-	=86-	=86-	=86-	=86-	=86-	=86-
!	!	!LO:LB:g=original	!	!	!	!	!
0ryy	.	4A/	.	2c/	.	2.f/	ex-
.	.	4F/	.	.	.	.	.
.	.	2.f\	.	2B-/	-mi-	.	.
.	.	.	.	.	.	4g/	-cel-
!	!	!	!	!LO:TX:t=P:problem:kreska pseudotaktowa	!	!	!
.	.	.	.	1c/	-ni.	4a/	.
.	.	4e\	.	.	.	4b-/	.
.	.	4e\	.	.	.	4cc/	.
.	.	8d\L	.	.	.	8b-/L	.
.	.	8c\J	.	.	.	8a/J	.
=87-	=87-	=87-	=87-	=87-	=87-	=87-	=87-
0ryy	.	2.d\	.	2r	.	4b-\	.
.	.	.	.	.	.	4cc\	.
.	.	.	.	2f\	O-	2.dd\	.
!	!	!LO:TX:t=P:problem:kreska pseudotaktowa	!	!	!	!	!
.	.	4c/	.	.	.	.	.
.	.	2B-/	.	2f\	-san-	.	.
.	.	.	.	.	.	4cc\	.
.	.	2F/	-mi-	2a\	-na	1ff\	.
=88-	=88-	=88-	=88-	=88-	=88-	=88-	=88-
!	!	!LO:TX:t=P:problem:kreska pseudotaktowa	!	!	!	!	!
0ryy	.	1c\	-ni.	2g\	in	.	.
.	.	.	.	2g\	ex-	2ee\	.
.	.	2r	.	2.f\	-cel-	4ff\	.
.	.	.	.	.	.	4ee\	.
.	.	2B-/	O-	.	.	4dd\	.
.	.	.	.	4e/	.	4cc\	.
=89-	=89-	=89-	=89-	=89-	=89-	=89-	=89-
0ryy	.	2B-/	-san-	4d/	.	2b-/	.
.	.	.	.	4c/	.	.	.
!	!	!LO:TX:t=P:problem:kreska pseudotaktowa	!	!	!	!	!
.	.	2d\	-na	1f\	.	4a/	.
.	.	.	.	.	.	8g/L	.
.	.	.	.	.	.	8f/J	.
.	.	2c\	in	.	.	1g/	.
.	.	2c\	ex-	2e\	.	.	.
1ryy	.	2.F/	-cel-	2f\	.	[1a/;l	-sis.
.	.	.	.	2.c/	.	.	.
!	!	!LO:TX:t=P:problem:kreska pseudotaktowa	!	!	!	!	!
.	.	4G/	.	.	.	.	.
=90-	=90-	=90-	=90-	=90-	=90-	=90-	=90-
0ryy	.	4A/	.	.	.	0a/_	.
.	.	8G/L	.	8B-/L	.	.	.
.	.	8F/J	.	8A/J	.	.	.
.	.	1B-/	.	1d/	.	.	.
.	.	2F/	.	2c/	.	.	.
=91-	=91-	=91-	=91-	=91-	=91-	=91-	=91-
0ryy	.	0F/;	-sis.	0c/;	-sis.	0a/]	.
==	==	==	==	==	==	==	==
*-	*-	*-	*-	*-	*-	*-	*-
!!!RDF**kern: > = above
!!!RDF**kern: < = below
!!!RDF**kern: l = terminal long
!!!system-decoration: [(s1,s2,s3,s4)]
!!!ENC:Kamil Watkowski
!!!END:2021-03-01
!!!EED: Andrzej Borzym
!!!EST: 2021-03-17
